X: 29654
T: Northern, The
R: hornpipe
M: 4/4
K: Dmajor
(3a^ga|:bafd AFDF|EFGB efge|bage cABc|(3dcd (3ede (3fef (3gfg|
bafd AFDF|EFGB efge|bage cABc|1 d2f2d2 (3a^ga:|2 d2f2d2 E2||
K:Amaj
|:E2AB cBcE|F2Bc dcdB|gfed cBFG|(3AGA (3BAB (3cBc e2|
E2AB cBcE|F2Bc dcdB|gfed cBFG|1 A2c2A2E2:|2 A2c2A2||

